X: 15178
T: Gillan's Apples
R: jig
M: 6/8
K: Dmajor
|:d3 F2E|DFE DFA|BcB BAF|AFE E3|
d3 A2F|DFA d2 e|g/f/ed cdB|BAF A3:|
|:cee cee|cee edc|dff dff|dff fed|
cee cee|cee ede|g/f/ed cdB|BAF A3:|

